X: 2489
T: Ballydesmond, The
R: polka
M: 2/4
K: Dmixolydian
|:A>B AG|EF GE|A>B AG|Ad d/e/d/c/|
A>B AG|EF G2|AB cE|ED D2:|
Ad d2|ed c2|ed cd|ea a/b/a/g/|
ed c2|ed c2|A>B cd|ef g>f|
ed cd|eA cd|e>d cd|ea a/b/a/g/|
e/f/g d>B|ce d>B|AB cE|ED D2||

